public/shape_login.svg

<svg id="eecL27vDou61" xmlns="http://www.w3.org/2000/svg" width="320px" xmlns:xlink="http://www.w3.org/1999/xlink" viewBox="0 0 184 184" shape-rendering="geometricPrecision" text-rendering="geometricPrecision"><path d="M39.7,-64.9C53.3,-61,67.3,-54,76.2,-42.6c9,11.3,12.8,27,12.7,42.6c0,15.6-4,31.1-12.7,42.9s-22,19.8-35.5,27.9c-13.5,8-27.1,16.1-40.5,15.8-13.5-.3-26.7-9-40-17.1-13.3-8.2-26.6-15.9-28.6-27.4-1.9-11.4,7.4-26.8,9.5-40.9c2.1-14-2.9-26.9-1.8-40s8.2-26.4,19.3-31.7c11.2-5.2,26.3-2.3,40.4-.6c14.1,1.8,27.2,2.4,40.7,6.2Z" transform="matrix(1.142118 0 0 1.142118 80.432622 84.484714)" fill="var(--first-color)"/></svg>

<svg viewBox="0 0 200 200" xmlns="http://www.w3.org/2000/svg" width="400" height="400">
  <path fill="var(--first-color)" d="M39.7,-64.9C53.3,-61,67.3,-54,76.2,-42.6C85.2,-31.3,89,-15.6,88.9,0C88.9,15.6,84.9,31.1,76.2,42.9C67.5,54.7,54.2,62.7,40.7,70.8C27.2,78.8,13.6,86.9,0.2,86.6C-13.3,86.3,-26.5,77.6,-39.8,69.5C-53.1,61.3,-66.4,53.6,-68.4,42.1C-70.3,30.7,-61,15.3,-58.9,1.2C-56.8,-12.8,-61.8,-25.7,-60.7,-38.8C-59.6,-51.9,-52.5,-65.2,-41.4,-70.5C-30.2,-75.7,-15.1,-72.8,-1,-71.1C13.1,-69.3,26.2,-68.7,39.7,-64.9Z" transform="translate(100 100)" />
</svg>
